X: 17182
T: Henning's
R: slide
M: 12/8
K: Amajor
AEA BFB c2de2a|ged BAG f2ec2B|
AEA BFB c2de2a|ged BAG A3 A3:|
|:a2ec2eg2ed2e|gag f2ga2ec2a|
a2ec2eg2ed2e|gag f2ga3a3:|

